X:1745
T:Cross Country
C:Germund Larsen
R:Polka
Z:Anton Teljebäck
M:4/4
L:1/8
K:D

|:D3E FA dc | BA GF E2 D2 | B,3A, G,A, B,G, | C3B, A,C D2 | D3E FA dc | BA GF E2 D2 | B,3A, G,A, B,G, | A,2 C2 D2 z2 :|
|:^de ee ^de ee | ^de ee =dc BA | fg gg fg gg | fg gg f2 d2 |^de ee ^de ee | ^de ee =dc BA | fg gg fg gg |1 f2 d2 e4 :|2 f2 d2 z4 | 
(:musicend:)
(:music:)
